outputs/icons/navigation/full_screen_round.svg

<svg xmlns="http://www.w3.org/2000/svg" width="1200" height="1200" fill="none"><g clip-path="url(#a)"><path fill="#000" d="M300 700c-27.5 0-50 22.5-50 50v150c0 27.5 22.5 50 50 50h150c27.5 0 50-22.5 50-50s-22.5-50-50-50H350V750c0-27.5-22.5-50-50-50m0-200c27.5 0 50-22.5 50-50V350h100c27.5 0 50-22.5 50-50s-22.5-50-50-50H300c-27.5 0-50 22.5-50 50v150c0 27.5 22.5 50 50 50m550 350H750c-27.5 0-50 22.5-50 50s22.5 50 50 50h150c27.5 0 50-22.5 50-50V750c0-27.5-22.5-50-50-50s-50 22.5-50 50zM700 300c0 27.5 22.5 50 50 50h100v100c0 27.5 22.5 50 50 50s50-22.5 50-50V300c0-27.5-22.5-50-50-50H750c-27.5 0-50 22.5-50 50"/></g><defs><clipPath id="a"><path fill="#fff" d="M0 0h1200v1200H0z"/></clipPath></defs></svg>

<svg width="1200" height="1200" viewBox="0 0 1200 1200" fill="none" xmlns="http://www.w3.org/2000/svg"><g clip-path="url(#clip0_225_2880)"><path d="M300 700C272.5 700 250 722.5 250 750V900C250 927.5 272.5 950 300 950H450C477.5 950 500 927.5 500 900C500 872.5 477.5 850 450 850H350V750C350 722.5 327.5 700 300 700ZM300 500C327.5 500 350 477.5 350 450V350H450C477.5 350 500 327.5 500 300C500 272.5 477.5 250 450 250H300C272.5 250 250 272.5 250 300V450C250 477.5 272.5 500 300 500ZM850 850H750C722.5 850 700 872.5 700 900C700 927.5 722.5 950 750 950H900C927.5 950 950 927.5 950 900V750C950 722.5 927.5 700 900 700C872.5 700 850 722.5 850 750V850ZM700 300C700 327.5 722.5 350 750 350H850V450C850 477.5 872.5 500 900 500C927.5 500 950 477.5 950 450V300C950 272.5 927.5 250 900 250H750C722.5 250 700 272.5 700 300Z" fill="black"/></g><defs><clipPath id="clip0_225_2880"><path width="24" fill="white" d="M0 0H1200V1200H0V0z"/></clipPath></defs></svg>
